X:1
T:Den Haag, 76.77.76
T:Den Haag, 76.77.76
T:Joachim von Burck (1546-1610)
T:Public Domain Courtesy of the Cyber Hymnal™
C:Joachim von Burck (1546-1610)
Z:Public Domain
Z:Courtesy of the Cyber Hymnal™
%%score 1 2 3 4
L:1/8
Q:1/4=137
M:3/4
K:D
V:1 treble 
V:2 treble 
V:3 treble-8 
V:4 bass 
V:1
 G2 | E4 F2 | G4 A2 | B6 | B4 e2 | d4 c2 | B4 B2 | (^A3 ^G A2) | B4 ^G2 | A4 B2 | A4 A2 | ^G6 | %12
 A4 d2 | (c3 B c2) | B4 B2 | ^A6 | B4 B2 | B4 =A2 | G4 A2 | B6 | B4 ^G2 | A4 A2 | F4 E2 | %23
 (^D3 C D2) | !fermata!E4 |] %25
V:2
 B,2 | B,4 B,2 | E4 E2 | (^D3 C D2) | E4 G2 | F4 F2 | F4 F2 | (F3 ^G F2) | F4 E2 | E4 E2 | E4 ^D2 | %11
 E6 | E4 A2 | (A3 B A2) | F4 E2 | F6 | F4 G2 | G4 F2 | D4 F2 | G6 | F4 E2 | F4 E2 | D4 A,2 | %23
 (B,3 C B,2) | B,4 |] %25
V:3
 E2 | G4 F2 | E4 E2 | F6 | G4 B2 | B4 c2 | d4 e2 | c6 | d4 B2 | c4 B2 | c4 A2 | B6 | c4 f2 | e6 | %14
 d4 B2 | c6 | d4 e2 | e4 c2 | B4 c2 | e6 | d4 B2 | d4 c2 | B4 E2 | F6 | ^G4 |] %25
V:4
 E,2 | E,4 D,2 | =C,4 C,2 | B,,6 | E,4 E,2 | B,,4 ^A,,2 | B,,4 E,2 | (F,3 E, F,2) | B,,4 E,2 | %9
 A,4 ^G,2 | A,4 F,2 | E,6 | A,4 D,2 | (A,3 ^G, A,2) | B,4 =G,2 | F,6 | B,,4 E,2 | E,4 F,2 | %18
 G,4 F,2 | E,6 | B,,4 E,2 | D,4 A,,2 | B,,4 =C,2 | (B,,3 A,, B,,2) | E,4 |] %25

